!!!SOCIAL_FUNCTION:	songs connected with the treatment of the sick
!!!PDT:	1932
!!!OTL: No_66_Song_of_the_Healing_Spirits.krn
!!!REG: Wisconsin
!!!LANG: Non-Tone
!!!LING_GROUP: Algonquin
**kern
*staff1
=1-
*clefF4
*k[]
*M2/4
4r
8r
16r
16d\
=2
8.d\L
16e-\Jk
8d\
16r
16c\
=3!|:
4c\
8r
16r
16c\
=4||
*M3/4
4c\
(8.c\L
16A\Jk)
8A\
16r
16c\
=5
8.c\L
16d\Jk
4c\
8r
16r
16A\
=6||
*M2/4
8A\L
8G\J
8G\
16r
16B-\
=7
8A\L
8G\J
4G\
=8
[2G\
=9
4G\]
8r
16r
16c\
=10
8.c\L
16G\Jk
8G\
16r
16G\
=11
8G\
16r
16A\
4G\
=12
(8.G\L
16E\Jk)
8E\
16r
16A\
=13
8.G\L
16A\Jk
[4G\
=14
4G\]
8r
16r
16E\
=15
8E\L
8D\J
8C/
16r
16E\
=16
4D\
4C/
=17
[2C/
=18
4C/]
8r
16r
16d\
=19
(8.d\L
16c\Jk)
8c\
16r
16c\
=20:|!
2C/
=21
4C/
4r
==
*-
